X:5
T:No.125 Muilleann na Maidi (Crushing the Twigs)
M:4/4
L:1/8
C:reel
K:D
D3E||FD (3DDD FDGE|FD (3DDD EFGE|
FD (3DDD FDEF|[1(3GGG BG EFGE:|[2(3GGG BG EFGB||
A3d BGAF|DFAF EFGB|A3d BGAF|[1G2 BG EFGB:|
[2G2 BG EFGA||fd (3ddd fdgd|fd (3ddd efge|
fd (3ddd fdef|[1(3ggg bg efge:|[2(3ggg bg egfe||
(3ddd ad bdad|dfaf egfe|dfaf bfaf|
(3ggg bg egfe:|d2AG FD (3DDD|FD (3DDD FA A2|
A3d BdAG|EDCD EFGB|d2AG FD (3DDD|
FD (3DDD FAA2|A3d BdAG|EDCD EFDD||
